X:45
T:Doherty's, Mickey
M:C
L:1/8
K:D Major
ABc|d2fa gfed|ceAe cdec|d2fa gfed|cABc d:|!
K: D Mixolydian
BAG|EGAB cAGE|D2FD ADFD|EGAB cAGE|AdcA G:|!
